remix/Buildings/home-7-line.svg

<svg viewBox="0 0 24 24" fill="currentColor" xmlns="http://www.w3.org/2000/svg"><path d="M19 21H5C4.44772 21 4 20.5523 4 20V11L1 11L11.3273 1.6115C11.7087 1.26475 12.2913 1.26475 12.6727 1.6115L23 11L20 11V20C20 20.5523 19.5523 21 19 21ZM6 19H18V9.15745L12 3.7029L6 9.15745V19ZM12 15C10.6193 15 9.5 13.8807 9.5 12.5C9.5 11.1193 10.6193 9.99998 12 9.99998C13.3807 9.99998 14.5 11.1193 14.5 12.5C14.5 13.8807 13.3807 15 12 15Z"/></svg>

<svg viewBox="0 0 24 24" xmlns="http://www.w3.org/2000/svg"><path fill="none" d="M0 0h24v24H0Z"/><path d="M19 21H5v0c-.56 0-1-.45-1-1v-9H1l10.327-9.388v0c.38-.35.96-.35 1.346 0L23 11h-3v9 0c0 .55-.45 1-1 1ZM6 19h12V9.157L12 3.7 6 9.157V19Zm6-4v0c-1.39 0-2.5-1.12-2.5-2.5 0-1.39 1.11-2.5 2.5-2.5v0c1.38 0 2.5 1.11 2.5 2.5 0 1.38-1.12 2.5-2.5 2.5Z"/></svg>
